color/abt.svg

<svg xmlns="http://www.w3.org/2000/svg" width="32" height="32" viewBox="0 0 32 32"><g fill="none" fill-rule="evenodd"><circle cx="16" cy="16" r="16" fill="#3EFFFF"/><path fill="#FFF" fill-rule="nonzero" d="M6.5 10.487L16 5l9.5 5.487v11.026L16 27l-9.5-5.487V10.487zm.912 9.97l3.81-2.205 1.933-3.385-5.743-3.323v8.913zm.457.791l7.702 4.449V21.44l-4.038-2.313-3.664 2.12zm16.719-9.673l-5.692 3.293 1.932 3.382 3.76 2.176v-8.851zm-.43-.808l-7.675-4.433v4.309l1.96 3.431 5.715-3.307zm-6.047 4.555L16.939 16l2.325 1.345-1.153-2.023zm-.453-.794l-1.175-2.06v2.74l1.175-.68zm-4.864 2.815L15.114 16l-1.169-.676-1.15 2.019zm-.346 1.256l3.123 1.788v-3.595l-3.123 1.807zm-4.58-7.847l5.74 3.32 1.963-3.435V6.303l-7.703 4.449zm16.29 10.481l-3.636-2.104-4.039 2.341v4.196l7.675-4.433zm-4.548-2.632l-3.127-1.809v3.622L19.61 18.6zm-5.212-4.071l1.173.678v-2.735l-1.173 2.057z"/></g></svg>

<!-- Generated by IcoMoon.io -->
<svg version="1.1" xmlns="http://www.w3.org/2000/svg" width="32" height="32" viewBox="0 0 32 32">
<title>abt</title>
<path fill="#3effff" d="M32 16c0 8.837-7.163 16-16 16s-16-7.163-16-16c0-8.837 7.163-16 16-16s16 7.163 16 16z"></path>
<path fill="#fff" d="M6.5 10.487l9.5-5.487 9.5 5.487v11.026l-9.5 5.487-9.5-5.487v-11.026zM7.412 20.457l3.81-2.205 1.933-3.385-5.743-3.323v8.913zM7.869 21.248l7.702 4.449v-4.257l-4.038-2.313-3.664 2.12zM24.588 11.575l-5.692 3.293 1.932 3.382 3.76 2.176v-8.851zM24.158 10.767l-7.675-4.433v4.309l1.96 3.431 5.715-3.307zM18.111 15.322l-1.172 0.678 2.325 1.345-1.153-2.023zM17.658 14.528l-1.175-2.060v2.74l1.175-0.68zM12.794 17.343l2.32-1.343-1.169-0.676-1.15 2.019zM12.448 18.599l3.123 1.788v-3.595l-3.123 1.807zM7.868 10.752l5.74 3.32 1.963-3.435v-4.334l-7.703 4.449zM24.158 21.233l-3.636-2.104-4.039 2.341v4.196l7.675-4.433zM19.61 18.601l-3.127-1.809v3.622l3.127-1.814zM14.398 14.53l1.173 0.678v-2.735l-1.173 2.057z"></path>
</svg>
